X:31
T:2. Allemaingne
C:Tielman Susato
B:Tielman Susato: "Danserye" (1551) no. 31
R:Allemande
Z:Transcribed by Frank Nordberg - http://www.musicaviva.com
F:http://abc.musicaviva.com/tunes/susato-tielman/susato-1551-31/susato-1551-31-4m.abc
M:4/2 
L:1/2
K:C
V:1
zCGA|GFED|CCD/E/F|EDE2|CCGA|GFED|CCDE/F/|G/F/E/D/E2|
zCEF|EDC2|A,B,C2|A,B,C2|zCEF|EDC2|A,B,C2|A,B,C2:|
V:2
zG,G,C|CCCA,|A,E,B,C|CA,A,2|G,G,CC|CCCA,|A,E,B,C-|C/C/C/A,/C2|
zA,CC|CA,A,G,|CB,A,G,|CB,A,2|zA,CC|CA,A,G,|CB,A,G,|CG,G,2:|
V:3
zE,E,F,|G,A,G,F,|E,E,G,A,|G,F,E,2|E,E,E,F,|G,A,G,F,|E,E,G,>F,|E,/C,/E,/F,/G,2|
zE,G,A,|G,F,E,E,|F,D,C,E,|F,D,C,2|zE,G,A,|G,F,E,E,|F,D,C,E,|F,D,C,2:|
V:4
C,2C,F,,|C,F,,C,D,|A,,C,G,,F,,|C,D,A,,2|C,2C,F,,|C,F,,C,D,|A,,C,G,,C,|C,/F,,/C,/D,/C,2|
zC,C,F,,|C,D,A,,C,|F,,G,,A,,C,|F,,G,,A,,2|zC,C,F,,|C,D,A,,C,|F,,G,,A,,C,|F,,G,,C,2:|
W:
W:
W:  From Musica Viva - http://www.musicaviva.com
W:  the Internet center for free sheet music downloads.
